ES1T1/13/aimg/a3.svg

<svg clip-rule="evenodd" fill-rule="evenodd" viewBox="0 0 200 200" xmlns="http://www.w3.org/2000/svg"><path d="m174.268 153.711v-4.768c3.223 1.348 5.976 2.022 8.262 2.022 2.666 0 3.999-.909 3.999-2.725 0-1.172-1.099-2.197-3.296-3.076l-2.197-.879c-2.388-.967-4.095-2.007-5.12-3.12-1.026-1.113-1.538-2.49-1.538-4.131 0-2.285.871-4.061 2.615-5.328 1.743-1.267 4.182-1.901 7.316-1.901 1.963 0 4.3.286 7.01.857v4.57c-2.608-.908-4.768-1.362-6.482-1.362-2.696 0-4.043.835-4.043 2.505 0 1.098.996 2.029 2.988 2.79l1.89.725c2.827 1.07 4.793 2.154 5.899 3.252 1.106 1.099 1.659 2.513 1.659 4.241 0 2.271-.941 4.113-2.823 5.526-1.882 1.414-4.332 2.121-7.35 2.121-2.9 0-5.83-.44-8.789-1.319z" fill="none" stroke="#aae1fa" stroke-width="2" transform="matrix(4.16667 0 0 4.16667 -665.621 -475.873)"/><path d="m.076-.017v-.106c.072.03.133.045.184.045.059 0 .089-.02.089-.061 0-.026-.025-.049-.074-.068l-.048-.02c-.053-.021-.091-.044-.114-.069s-.034-.055-.034-.092c0-.05.019-.09.058-.118.038-.028.093-.042.162-.042.044 0 .096.006.156.019v.101c-.058-.02-.106-.03-.144-.03-.06 0-.09.019-.09.056 0 .024.022.045.067.062l.042.016c.062.024.106.048.131.072.024.024.037.056.037.094 0 .051-.021.092-.063.123-.042.032-.096.047-.164.047-.064 0-.129-.01-.195-.029z" fill="#fff" fill-rule="nonzero" transform="matrix(187.50015 0 0 187.50015 46.212903 167.794182)"/></svg>

<?xml version="1.0" encoding="UTF-8" standalone="no"?>
<!DOCTYPE svg PUBLIC "-//W3C//DTD SVG 1.1//EN" "http://www.w3.org/Graphics/SVG/1.1/DTD/svg11.dtd">
<svg width="100%" height="100%" viewBox="0 0 200 200" version="1.1" xmlns="http://www.w3.org/2000/svg" xmlns:xlink="http://www.w3.org/1999/xlink" xml:space="preserve" xmlns:serif="http://www.serif.com/" style="fill-rule:evenodd;clip-rule:evenodd;">
    <g transform="matrix(4.16667,0,0,4.16667,-665.621,-475.873)">
        <g>
            <path d="M174.268,153.711L174.268,148.943C177.491,150.291 180.244,150.965 182.53,150.965C185.196,150.965 186.529,150.056 186.529,148.24C186.529,147.068 185.43,146.043 183.233,145.164L181.036,144.285C178.648,143.318 176.941,142.278 175.916,141.165C174.89,140.052 174.378,138.675 174.378,137.034C174.378,134.749 175.249,132.973 176.993,131.706C178.736,130.439 181.175,129.805 184.309,129.805C186.272,129.805 188.609,130.091 191.319,130.662L191.319,135.232C188.711,134.324 186.551,133.87 184.837,133.87C182.141,133.87 180.794,134.705 180.794,136.375C180.794,137.473 181.79,138.404 183.782,139.165L185.672,139.89C188.499,140.96 190.465,142.044 191.571,143.142C192.677,144.241 193.23,145.655 193.23,147.383C193.23,149.654 192.289,151.496 190.407,152.909C188.525,154.323 186.075,155.03 183.057,155.03C180.157,155.03 177.227,154.59 174.268,153.711Z" style="fill:none;fill-rule:nonzero;stroke:rgb(170,225,250);stroke-width:2px;"/>
        </g>
        <g transform="matrix(45,0,0,45,170.84,154.48)">
            <path d="M0.076,-0.017L0.076,-0.123C0.148,-0.093 0.209,-0.078 0.26,-0.078C0.319,-0.078 0.349,-0.098 0.349,-0.139C0.349,-0.165 0.324,-0.188 0.275,-0.207L0.227,-0.227C0.174,-0.248 0.136,-0.271 0.113,-0.296C0.09,-0.321 0.079,-0.351 0.079,-0.388C0.079,-0.438 0.098,-0.478 0.137,-0.506C0.175,-0.534 0.23,-0.548 0.299,-0.548C0.343,-0.548 0.395,-0.542 0.455,-0.529L0.455,-0.428C0.397,-0.448 0.349,-0.458 0.311,-0.458C0.251,-0.458 0.221,-0.439 0.221,-0.402C0.221,-0.378 0.243,-0.357 0.288,-0.34L0.33,-0.324C0.392,-0.3 0.436,-0.276 0.461,-0.252C0.485,-0.228 0.498,-0.196 0.498,-0.158C0.498,-0.107 0.477,-0.066 0.435,-0.035C0.393,-0.003 0.339,0.012 0.271,0.012C0.207,0.012 0.142,0.002 0.076,-0.017Z" style="fill:white;fill-rule:nonzero;"/>
        </g>
    </g>
</svg>
